X:23
T:The Green Hills of Tyrol
R:March
M:3/4
L:1/8
Q:1/4=74
K:Cmix
c>d
|: e2 ec ef | g2 ga ea | g>e d2 da | g>e c2 c>d |
   e2 ec ef | g2 ga ea | g>e d2 dc |1 e>d c2 c>d :|2 e>d c2 eg ||
|: c'2 c'2 ba | ag g2 g>a | gf f2 f>g | fe e2 eg |
   c'2 c'2 ba | ag g2 g>a | g2 g>f ef |1 g2 g2 eg :|2 g2 g2 c>d ||

